( BEGIN PGM 827-9999-904 INCH)
(;MASTERCAM - X)
(;MCX FILE  - C:\B. PRIES GEOMETRY\MIKRON\MONEER\827-9999-904.MCX-9)
(;MATERIAL  - ALUMINUM INCH - 2024)
(;PROGRAM   - 827-9999-904.H)
(;DATE      - MAR-22-2016)
(;TIME      - 11:31 AM)
(;POST DEV - IN-HOUSE SOLUTIONS INC.)
(;)
(BLK FORM 0.1 Z X-.1 Y-.72 Z-.35715)
(BLK FORM 0.2 X+4.137 Y+3.458 Z+.64285)
(;TOOL - 11  | 9/16FEM 2 FLT.                 |         | CONTOUR....)
(;TOOL - 21  | 3" FACE MILL                   |         | FACING.....)
(;TOOL - 10  | 1/2" DIA. 2 FLUTE STUBBY FULLERTON E.M. |         | POCKET.....)
(;TOOL - 3   | 1/4" DIA. 2 FLUTE STUBBY FULLERTON E.M. |         | CONTOUR....)
(;TOOL - 4   | 1/4" DIA. X .032" RADIUS 2 FLUTE STUBBY BULLNOSE E.M. | R0.0320 | CONTOUR....)
(;TOOL - 5   | 1/4" 2 FLUTE E.M. WITH .020" X 45° CHAMFERS |         | CONTOUR....)
(;TOOL - 24  | 90 DEG 3/8" CHAMFER            |         | DRILLING 200)
(;TOOL - 7   | #30 DRILL                      |         | UNIVERSAL PECKING 205)
(;TOOL - 56  | LET. B DRILL                   |         | UNIVERSAL PECKING 205)
(;TOOL - 55  | .2505" REAMER                  |         | REAMING 201)
(;TOOL - 26  | 9/32" DRILL                    |         | UNIVERSAL PECKING 205)
(CYCL DEF 247 DATUM SETTING ~)
(       Q339=+1 ; DATUM NUMBER)
(M126 M129)
(PLANE RESET STAY)
(L A+Q120 B+Q121 C+Q122 F MAX)
(;)
(* - 9/16FEM 2 FLT.)
(;TOOLPLANE NAME - OPERATION-1)
(TOOL CALL 11 Z S12000)
(;)
(;MAX - Z+5)
(;MIN - Z-.78085)
(PLANE RESET STAY)
(L A+Q120 B+Q121 C+Q122 F MAX)
(;)
G0X-0.702Y-3.958
Z5.
(M08)
Z0.289
G1Z-0.781F200.
X-0.602F1500.
G3X-0.102Y-3.458Z-0.781I-0.602J-3.458
G1Y0.72Z-0.781
G2X-0.1Y0.722Z-0.781I-0.1J0.72
G1X4.137Z-0.781
G2X4.139Y0.72Z-0.781I4.137J0.72
G1Y-3.458Z-0.781
G2X4.137Y-3.46Z-0.781I4.137J-3.458
G1X-0.1Z-0.781
G2X-0.102Y-3.458Z-0.781I-0.1J-3.458
G1Y-3.453Z-0.781
G3X-0.602Y-2.953Z-0.781I-0.602J-3.453
G1X-0.702Z-0.781
X-0.7Y-3.958
X-0.6
G3X-0.1Y-3.458Z-0.781I-0.6J-3.458
G1Y0.72Z-0.781
X4.137
Y-3.458
X-0.1
Y-3.453
G3X-0.6Y-2.953Z-0.781I-0.6J-3.453
G1X-0.7Z-0.781
Z-0.681F2000.
G0Z5.
(M09)
(M5)
(M140 MB MAX)
(PLANE RESET STAY)
(M01)
(;)
(* - 3" Face Mill | ROUGH DATUM -A- SURFACE)
(;TOOLPLANE NAME - OPERATION-1)
(TOOL CALL 21 Z S10000)
(;)
(;MAX - Z+.21415)
(;MIN - Z+0)
(PLANE RESET STAY)
(L A+Q120 B+Q121 C+Q122 F MAX)
(;)
(M08)
X5.787Y-3.458
Z0.214
G1Z0.12F2150.
X-1.75F2200.
G0Z0.2
X5.787Y-1.994
Z0.145
G1Z0.12F2150.
X-1.75F2200.
G0Z0.2
X5.787Y-0.53
Z0.145
G1Z0.12F2150.
X-1.75F2200.
G0Z0.2
X5.787Y-3.458
Z0.145
G1Z0.05F2150.
X-1.75F2200.
G0Z0.2
X5.787Y-1.994
Z0.075
G1Z0.05F2150.
X-1.75F2200.
G0Z0.2
X5.787Y-0.53
Z0.075
G1Z0.05F2150.
X-1.75F2200.
G0Z0.2
(;)
(* - 3" Face Mill | FINISH DATUM -A-)
X5.787Y-2.208
Z0.075
G1Z0.F1750.
X-0.1F1800.
G2X-0.1Y-0.53I-0.1J-1.369
G1X5.787
G0Z0.2
(M09)
(M5)
(M140 MB MAX)
(PLANE RESET STAY)
(M01)
(;)
(* - 1/2" Dia. 2 Flute Stubby Fullerton E.M. | ROUGH .134 DEEP STEP)
(;TOOLPLANE NAME - OPERATION-1)
(TOOL CALL 10 Z S12000)
(;)
(;MAX - Z+.2)
(;MIN - Z-.168)
(PLANE RESET STAY)
(L A+Q120 B+Q121 C+Q122 F MAX)
(;)
(M08)
X1.084Y-1.712

Z0.025
G1Z0.01F600.
G2X1.631Y-0.878Z-0.124I1.373J-1.305F2000.
G1X1.631Y-0.878
X1.376Y-1.3
X1.278
Y-1.313
X1.383
G2X1.376Y-1.3I2.04J-0.955
G1X1.55Y-1.05
X1.029
Y-1.562
X1.565
G2X1.717Y-1.335I2.04J-1.714
X1.55Y-1.051I2.04J-0.955
G1X1.79Y-0.954
Y-0.806
G3X1.785Y-0.801I1.785J-0.806
G1X0.785Y-0.801
G3X0.779Y-0.806I0.785J-0.806
G1X0.779Y-1.806
G3X0.785Y-1.812I0.785J-1.807
G1X1.785Y-1.812
G3X1.791Y-1.807I1.785J-1.807
G1X1.79Y-1.714
G2X2.04Y-1.465I2.04J-1.714
G1X2.377Y-1.465
G2X2.626Y-1.709I2.377J-1.714
G3X2.636Y-1.719I2.636J-1.708
G1X2.923Y-1.719
G3X2.933Y-1.708I2.922J-1.708
G1X2.933Y-1.214
G3X2.922Y-1.204I2.922J-1.214
G1X2.04Y-1.204
G2X1.791Y-0.955I2.04J-0.955
G0X1.79Y-0.954Z0.2
(;)
(* - 1/2" Dia. 2 Flute Stubby Fullerton E.M. | FINISH .134 DEEP STEP FLOOR)
X1.447Y-0.832
Z-0.099
G1Z-0.114F600.
G2X1.639Y-0.952Z-0.134I1.287J-1.305F1200.
G1X1.639Y-0.952
X1.291Y-1.3
X1.278
Y-1.313
X1.291
Y-1.3
X1.541Y-1.05
X1.029
Y-1.562
X1.541
Y-1.05
X1.79Y-0.954
Y-0.806
G3X1.785Y-0.801I1.785J-0.806
G1X0.785Y-0.801
G3X0.779Y-0.806I0.785J-0.806
G1X0.779Y-1.806
G3X0.785Y-1.812I0.785J-1.807
G1X1.785Y-1.812
G3X1.791Y-1.807I1.785J-1.807
G1X1.79Y-1.714
Y-0.954
G0Z0.2
(;)
(* - 1/2" Dia. 2 Flute Stubby Fullerton E.M. | FINISH .138 DEEP STEP FLOOR)
X2.762Y-1.209
Z-0.109
G1Z-0.124F600.
X2.923Z-0.138F1200.
X2.808Y-1.329
X2.376
Y-1.34
X2.377
G2X2.731Y-1.594I2.377J-1.714
G1X2.808Y-1.594
Y-1.329
X2.933Y-1.214
G3X2.922Y-1.204I2.922J-1.214
G1X2.262Y-1.204
G3X2.251Y-1.214I2.261J-1.214
G1X2.251Y-1.454
G3X2.261Y-1.465I2.261J-1.454
G1X2.377Y-1.465
G2X2.626Y-1.709I2.377J-1.714
G3X2.636Y-1.719I2.636J-1.708
G1X2.923Y-1.719
G3X2.933Y-1.708I2.922J-1.708
G1X2.933Y-1.214
G0Z0.2
(;)
(* - 1/2" Dia. 2 Flute Stubby Fullerton E.M. | ROUGH .168 DEEP STEP)
X2.859Y-0.218
Z0.025
G1Z0.01F600.
G2X3.516Y0.449Z-0.158I3.064J0.236F2000.
G1Y0.449
X4.137Y0.741
G2X4.157Y0.72I4.137J0.72
G1Y0.13
X4.203Y0.065
G2X4.203Y-0.401I3.869J-0.168
G1X4.157Y-0.467
Y-3.458
G2X4.137Y-3.478I4.137J-3.458
G1X-0.1
G2X-0.121Y-3.458I-0.1J-3.458
G1Y-0.467
X-0.166Y-0.401
G2X-0.166Y0.065I0.168J-0.168
G1X-0.121Y0.13
Y0.72
G2X-0.1Y0.741I-0.1J0.72
G1X4.137
X3.933Y0.513
Y0.464
X3.652Y0.414
X3.448Y0.289
X3.304Y0.089
X3.249Y-0.135
X3.278Y-0.36
X3.387Y-0.559
X3.564Y-0.709
X3.788Y-0.784
X3.933Y-0.809
Y-2.106
X3.694Y-1.982
X3.594Y-1.957
X3.338
X3.404Y-1.757
X3.395Y-1.108
X3.317Y-0.934
X3.187Y-0.809
X3.086Y-0.759
X2.981Y-0.734
X2.253Y-0.709
X2.177Y-0.534
X2.05Y-0.41
X1.864Y-0.335
X0.773Y-0.31
X0.784Y-0.085
X0.708Y0.139
X0.56Y0.314
X0.385Y0.414
X0.104Y0.464
Y0.513
X3.933
X3.104Y0.239
X3.035Y0.039
X3.Y-0.16
X3.049Y-0.46
X3.062Y-0.484
X2.416Y-0.46
X2.33Y-0.335
X2.159Y-0.185
X1.867Y-0.085
X1.032Y-0.06
X0.936Y0.239
X3.104
X2.769Y-0.035
X2.756Y-0.21
X2.547
X2.366Y-0.035
X2.769
X3.623Y-1.008
X3.673
X3.683Y-1.707
X3.653
X3.633Y-1.033
X3.623Y-1.008
X2.991Y-2.206
X2.89Y-2.431
X2.88Y-2.655
X2.957Y-2.88
X3.107Y-3.054
X3.285Y-3.154
X3.375Y-3.179
X3.615
X3.811Y-3.104
X3.933Y-3.029
Y-3.254
X0.104
Y-3.029
X0.332Y-3.154
X0.422Y-3.179
X0.662
X0.858Y-3.104
X1.03Y-2.955
X1.135Y-2.755
X1.162Y-2.53
X1.104Y-2.306
X1.847Y-2.281
X2.046Y-2.206
X2.192Y-2.056
X2.237Y-1.982
X2.361Y-2.106
X2.532Y-2.181
X2.991Y-2.206
X2.639Y-2.456
X2.642Y-2.73
X2.741Y-3.004
X1.285
X1.383Y-2.78
X1.41Y-2.555
X1.852Y-2.53
X2.154Y-2.431
X2.248Y-2.356
X2.309
X2.525Y-2.431
X2.639Y-2.456
X2.391Y-2.655
X2.393Y-2.755
X1.968
X2.339Y-2.63
X2.391Y-2.655
X0.341Y-1.982
X0.104Y-2.106
Y-0.809
X0.307Y-0.784
X0.317Y-1.907
X0.341Y-1.982
X0.53Y-1.801
Y-0.811
G2X0.79Y-0.552I0.79J-0.812
G1X1.78Y-0.552
G2X2.039Y-0.812I1.78J-0.812
G1X2.039Y-1.08
G2X2.261Y-0.955I2.261J-1.214
G1X2.923Y-0.955
G2X3.182Y-1.214I2.922J-1.214
G1X3.182Y-1.708
G2X2.922Y-1.968I2.922J-1.708
G1X2.637Y-1.968
G2X2.377Y-1.714I2.636J-1.708
G1X2.262Y-1.714
G2X2.039Y-1.589I2.261J-1.454
G1X2.039Y-1.801
G2X1.78Y-2.061I1.78J-1.802
G1X0.79Y-2.061
G2X0.53Y-1.802I0.79J-1.802
G3X0.645Y-2.017I0.79J-1.802
G1X0.764Y-2.241
G3X0.939Y-2.57I0.542J-2.57
G2X0.146Y-2.57I0.542J-2.57
X0.939Y-2.57I0.542J-2.57
G1X3.098Y-2.57
G3X3.891Y-2.57I3.495J-2.57
G2X3.098Y-2.57I3.495J-2.57
X3.891Y-2.57I3.495J-2.57
G1X4.157Y-0.861
Y-0.467
X4.203Y-0.401
G3X4.239Y-0.339I3.869J-0.168
G1X4.247Y-0.289
G2X4.265Y-0.168I3.869J-0.168
X3.472Y-0.168I3.869J-0.168
X4.265Y-0.168I3.869J-0.168
G3X3.472Y-0.168I3.869J-0.168
G1X0.565Y-0.168
G2X-0.228Y-0.168I0.168J-0.168
X0.565Y-0.168I0.168J-0.168
G0X0.565Y-0.168Z0.2
(;)
(* - 1/2" Dia. 2 Flute Stubby Fullerton E.M. | FINISH .168 DEEP STEP FLOOR)
X3.376Y0.627
Z-0.133
G1Z-0.148F600.
G2X3.516Y0.449Z-0.168I3.064J0.236F1200.
G1Y0.449
X4.137Y0.741
G2X4.157Y0.72I4.137J0.72
G1Y0.13
X4.203Y0.065
G2X4.203Y-0.401I3.869J-0.168
G1X4.157Y-0.467
Y-3.458
G2X4.137Y-3.478I4.137J-3.458
G1X-0.1
G2X-0.121Y-3.458I-0.1J-3.458
G1Y-0.467
X-0.166Y-0.401
G2X-0.166Y0.065I0.168J-0.168
G1X-0.121Y0.13
Y0.72
G2X-0.1Y0.741I-0.1J0.72
G1X4.137
X3.933Y0.513
Y0.464
X3.652Y0.414
X3.448Y0.289
X3.304Y0.089
X3.249Y-0.135
X3.278Y-0.36
X3.387Y-0.559
X3.564Y-0.709
X3.788Y-0.784
X3.933Y-0.809
Y-2.106
X3.694Y-1.982
X3.594Y-1.957
X3.338
X3.404Y-1.757
X3.395Y-1.108
X3.317Y-0.934
X3.187Y-0.809
X3.086Y-0.759
X2.981Y-0.734
X2.253Y-0.709
X2.177Y-0.534
X2.05Y-0.41
X1.864Y-0.335
X0.773Y-0.31
X0.784Y-0.085
X0.708Y0.139
X0.56Y0.314
X0.385Y0.414
X0.104Y0.464
Y0.513
X3.933
X3.104Y0.239
X3.035Y0.039
X3.Y-0.16
X3.049Y-0.46
X3.062Y-0.484
X2.416Y-0.46
X2.33Y-0.335
X2.159Y-0.185
X1.867Y-0.085
X1.032Y-0.06
X0.936Y0.239
X3.104
X2.769Y-0.035
X2.756Y-0.21
X2.547
X2.366Y-0.035
X2.769
X3.623Y-1.008
X3.673
X3.683Y-1.707
X3.653
X3.633Y-1.033
X3.623Y-1.008
X2.991Y-2.206
X2.89Y-2.431
X2.88Y-2.655
X2.957Y-2.88
X3.107Y-3.054
X3.285Y-3.154
X3.375Y-3.179
X3.615
X3.811Y-3.104
X3.933Y-3.029
Y-3.254
X0.104
Y-3.029
X0.332Y-3.154
X0.422Y-3.179
X0.662
X0.858Y-3.104
X1.03Y-2.955
X1.135Y-2.755
X1.162Y-2.53
X1.104Y-2.306
X1.847Y-2.281
X2.046Y-2.206
X2.192Y-2.056
X2.237Y-1.982
X2.361Y-2.106
X2.532Y-2.181
X2.991Y-2.206
X2.639Y-2.456
X2.642Y-2.73
X2.741Y-3.004
X1.285
X1.383Y-2.78
X1.41Y-2.555
X1.852Y-2.53
X2.154Y-2.431
X2.248Y-2.356
X2.309
X2.525Y-2.431
X2.639Y-2.456
X2.391Y-2.655
X2.393Y-2.755
X1.968
X2.339Y-2.63
X2.391Y-2.655
X0.341Y-1.982
X0.104Y-2.106
Y-0.809
X0.307Y-0.784
X0.317Y-1.907
X0.341Y-1.982
X0.53Y-1.801
Y-0.811
G2X0.79Y-0.552I0.79J-0.812
G1X1.78Y-0.552
G2X2.039Y-0.812I1.78J-0.812
G1X2.039Y-1.08
G2X2.261Y-0.955I2.261J-1.214
G1X2.923Y-0.955
G2X3.182Y-1.214I2.922J-1.214
G1X3.182Y-1.708
G2X2.922Y-1.968I2.922J-1.708
G1X2.637Y-1.968
G2X2.377Y-1.714I2.636J-1.708
G1X2.262Y-1.714
G2X2.039Y-1.589I2.261J-1.454
G1X2.039Y-1.801
G2X1.78Y-2.061I1.78J-1.802
G1X0.79Y-2.061
G2X0.53Y-1.802I0.79J-1.802
G3X0.645Y-2.017I0.79J-1.802
G1X0.764Y-2.241
G3X0.939Y-2.57I0.542J-2.57
G2X0.146Y-2.57I0.542J-2.57
X0.939Y-2.57I0.542J-2.57
G1X3.098Y-2.57
G3X3.891Y-2.57I3.495J-2.57
G2X3.098Y-2.57I3.495J-2.57
X3.891Y-2.57I3.495J-2.57
G1X4.157Y-0.861
Y-0.467
X4.203Y-0.401
G3X4.239Y-0.339I3.869J-0.168
G1X4.247Y-0.289
G2X4.265Y-0.168I3.869J-0.168
X3.472Y-0.168I3.869J-0.168
X4.265Y-0.168I3.869J-0.168
G3X3.472Y-0.168I3.869J-0.168
G1X0.565Y-0.168
G2X-0.228Y-0.168I0.168J-0.168
X0.565Y-0.168I0.168J-0.168
G0X0.565Y-0.168Z0.2
(M09)
(M5)
(M140 MB MAX)
(PLANE RESET STAY)
(M01)
(;)
(* - 1/4" Dia. 2 Flute Stubby Fullerton E.M. | FINISH CONTOUR OF BOSSES TO .168 DEEP STEP)
(;TOOLPLANE NAME - OPERATION-1)
(TOOL CALL 3 Z S12000)
(;)
(;MAX - Z+.2)
(;MIN - Z-.168)
(PLANE RESET STAY)
(L A+Q120 B+Q121 C+Q122 F MAX)
(;)
(M08)
X2.535Y-1.059

Z0.025
G1Z-0.168F950.
X2.467Y-1.176F960.
G3X2.592Y-1.21I2.592J-0.96
G1X2.923Y-1.209
G2X2.928Y-1.214I2.922J-1.214
G1X2.928Y-1.708
G2X2.922Y-1.714I2.922J-1.708
G1X2.637Y-1.713
G2X2.632Y-1.708I2.636J-1.708
G1X2.632Y-1.594
G3X2.497Y-1.46I2.497J-1.595
G1X2.262Y-1.459
G2X2.257Y-1.454I2.261J-1.454
G1X2.257Y-1.214
G2X2.261Y-1.21I2.261J-1.214
G1X2.592Y-1.209
X2.602
G3X2.727Y-1.176I2.602J-0.96
G1X2.66Y-1.059
G0Z-0.084
Z0.025
X1.227Y-0.656
G1Z-0.168F950.
X1.16Y-0.773F960.
G3X1.285Y-0.806I1.285J-0.556
G1X1.78Y-0.806
G2X1.785Y-0.812I1.78J-0.812
G1X1.785Y-1.801
G2X1.78Y-1.807I1.78J-1.802
G1X0.79Y-1.806
G2X0.785Y-1.802I0.79J-1.802
G1X0.785Y-0.811
G2X0.79Y-0.806I0.79J-0.812
G1X1.285Y-0.806
X1.295
G3X1.42Y-0.773I1.295J-0.556
G1X1.352Y-0.656
G0Z0.2
(M09)
(M5)
(M140 MB MAX)
(PLANE RESET STAY)
(M01)
(;)
(* - 1/4" Dia. x .032" Radius 2 Flute Stubby Bullnose E.M. | ROUGH CONTOUR OF BOSSES TO .168 DEEP STEP LEFT OVER BY 1/2" E.M.)
(;TOOLPLANE NAME - OPERATION-1)
(TOOL CALL 4 Z S12000)
(;)
(;MAX - Z+.2)
(;MIN - Z-.168)
(PLANE RESET STAY)
(L A+Q120 B+Q121 C+Q122 F MAX)
(;)
(M08)
X0.434Y-0.111

Z0.025
G1Z-0.082F1400.
X0.317Y-0.043F1440.
G3X0.283Y-0.168I0.533J-0.168
G2X0.053Y-0.168I0.168J-0.168
X0.283Y-0.168I0.168J-0.168
G3X0.317Y-0.293I0.533J-0.168
G1X0.434Y-0.226
G0Z-0.057
X0.434Y-0.111
G1Z-0.163F1400.
X0.317Y-0.043F1440.
G3X0.283Y-0.168I0.533J-0.168
G2X0.053Y-0.168I0.168J-0.168
X0.283Y-0.168I0.168J-0.168
G3X0.317Y-0.293I0.533J-0.168
G1X0.434Y-0.226
G0Z0.2
(;)
(* - 1/4" Dia. x .032" Radius 2 Flute Stubby Bullnose E.M. | FINISH CONTOUR OF BOSSES TO .168 DEEP STEP)
X0.429Y-0.111
Z0.025
G1Z-0.168F950.
X0.312Y-0.043F960.
G3X0.278Y-0.168I0.528J-0.168
G2X0.058Y-0.168I0.168J-0.168
X0.278Y-0.168I0.168J-0.168
X0.278Y-0.178I0.168J-0.168
G3X0.3Y-0.306I0.527J-0.201
G1X0.422Y-0.249
G0Z0.2
(;)
(* - 1/4" Dia. x .032" Radius 2 Flute Stubby Bullnose E.M. | ROUGH CONTOUR OF BOSSES TO .168 DEEP STEP LEFT OVER BY 1/2" E.M.)
X0.277Y-2.627
Z0.025
G1Z-0.082F1400.
X0.394Y-2.695F1440.
G3X0.427Y-2.57I0.177J-2.57
G2X0.657Y-2.57I0.542J-2.57
X0.427Y-2.57I0.542J-2.57
G3X0.394Y-2.445I0.177J-2.57
G1X0.277Y-2.512
G0Z-0.057
X0.277Y-2.627
G1Z-0.163F1400.
X0.394Y-2.695F1440.
G3X0.427Y-2.57I0.177J-2.57
G2X0.657Y-2.57I0.542J-2.57
X0.427Y-2.57I0.542J-2.57
G3X0.394Y-2.445I0.177J-2.57
G1X0.277Y-2.512
G0Z0.2
(;)
(* - 1/4" Dia. x .032" Radius 2 Flute Stubby Bullnose E.M. | FINISH CONTOUR OF BOSSES TO .168 DEEP STEP)
X0.282Y-2.627
Z0.025
G1Z-0.168F950.
X0.399Y-2.695F960.
G3X0.432Y-2.57I0.182J-2.57
G2X0.652Y-2.57I0.542J-2.57
X0.432Y-2.57I0.542J-2.57
X0.433Y-2.56I0.542J-2.57
G3X0.411Y-2.432I0.184J-2.537
G1X0.288Y-2.489
G0Z0.2
(;)
(* - 1/4" Dia. x .032" Radius 2 Flute Stubby Bullnose E.M. | ROUGH CONTOUR OF BOSSES TO .168 DEEP STEP LEFT OVER BY 1/2" E.M.)
X3.76Y-2.512
Z0.025
G1Z-0.082F1400.
X3.643Y-2.445F1440.
G3X3.61Y-2.57I3.86J-2.57
G2X3.38Y-2.57I3.495J-2.57
X3.61Y-2.57I3.495J-2.57
G3X3.643Y-2.695I3.86J-2.57
G1X3.76Y-2.627
G0Z-0.057
X3.76Y-2.512
G1Z-0.163F1400.
X3.643Y-2.445F1440.
G3X3.61Y-2.57I3.86J-2.57
G2X3.38Y-2.57I3.495J-2.57
X3.61Y-2.57I3.495J-2.57
G3X3.643Y-2.695I3.86J-2.57
G1X3.76Y-2.627
G0Z0.2
(;)
(* - 1/4" Dia. x .032" Radius 2 Flute Stubby Bullnose E.M. | FINISH CONTOUR OF BOSSES TO .168 DEEP STEP)
X3.755Y-2.512
Z0.025
G1Z-0.168F950.
X3.638Y-2.445F960.
G3X3.605Y-2.57I3.855J-2.57
G2X3.385Y-2.57I3.495J-2.57
X3.605Y-2.57I3.495J-2.57
X3.604Y-2.58I3.495J-2.57
G3X3.627Y-2.707I3.853J-2.602
G1X3.749Y-2.651
G0Z0.2
(;)
(* - 1/4" Dia. x .032" Radius 2 Flute Stubby Bullnose E.M. | ROUGH CONTOUR OF BOSSES TO .168 DEEP STEP LEFT OVER BY 1/2" E.M.)
X3.603Y-0.226
Z0.025
G1Z-0.082F1400.
X3.72Y-0.293F1440.
G3X3.754Y-0.168I3.504J-0.168
G2X3.984Y-0.168I3.869J-0.168
X3.754Y-0.168I3.869J-0.168
G3X3.72Y-0.043I3.504J-0.168
G1X3.603Y-0.111
G0Z-0.057
Y-0.226
G1Z-0.163F1400.
X3.72Y-0.293F1440.
G3X3.754Y-0.168I3.504J-0.168
G2X3.984Y-0.168I3.869J-0.168
X3.754Y-0.168I3.869J-0.168
G3X3.72Y-0.043I3.504J-0.168
G1X3.603Y-0.111
G0Z0.2
(;)
(* - 1/4" Dia. x .032" Radius 2 Flute Stubby Bullnose E.M. | FINISH CONTOUR OF BOSSES TO .168 DEEP STEP)
X3.608Y-0.226
Z0.025
G1Z-0.168F950.
X3.725Y-0.293F960.
G3X3.759Y-0.168I3.509J-0.168
G2X3.979Y-0.168I3.869J-0.168
X3.759Y-0.168I3.869J-0.168
X3.759Y-0.158I3.869J-0.168
G3X3.737Y-0.031I3.51J-0.135
G1X3.615Y-0.087
G0Z0.2
(M09)
(M5)
(M140 MB MAX)
(PLANE RESET STAY)
(M01)
(;)
(* - 1/4" 2 Flute E.M. With .020" x 45° Chamfers | DEBURR)
(;TOOLPLANE NAME - OPERATION-1)
(TOOL CALL 5 Z S12000)
(;)
(;MAX - Z+.2)
(;MIN - Z-.183)
(PLANE RESET STAY)
(L A+Q120 B+Q121 C+Q122 F MAX)
(;)
(M08)
X3.511Y-0.236

Z0.025
G1Z-0.015F950.
X3.61Y-0.293F400.
G3X3.644Y-0.168I3.394J-0.168
G2X4.094Y-0.168I3.869J-0.168
X3.644Y-0.168I3.869J-0.168
X3.644Y-0.158I3.869J-0.168
G3X3.616Y-0.032I3.394J-0.147
G1X3.514Y-0.085
G0Z0.05
X3.853Y-2.502
Z0.025
G1Z-0.015F950.
X3.753Y-2.445F400.
G3X3.72Y-2.57I3.97J-2.57
G2X3.27Y-2.57I3.495J-2.57
X3.72Y-2.57I3.495J-2.57
X3.72Y-2.58I3.495J-2.57
G3X3.748Y-2.706I3.969J-2.591
G1X3.85Y-2.653
G0Z0.05
X2.847Y-1.962
Z-0.113
G1Z-0.153F950.
X2.905Y-1.862F400.
G3X2.78Y-1.829I2.78J-2.079
G1X2.637Y-1.828
G2X2.517Y-1.708I2.636J-1.708
G1X2.517Y-1.594
G3X2.497Y-1.575I2.497J-1.595
G1X2.262Y-1.574
G2X2.142Y-1.454I2.261J-1.454
G1X2.142Y-1.214
G2X2.261Y-1.095I2.261J-1.214
G1X2.923Y-1.094
G2X3.043Y-1.214I2.922J-1.214
G1X3.043Y-1.708
G2X2.922Y-1.829I2.922J-1.708
G1X2.78Y-1.828
X2.77
G3X2.644Y-1.862I2.769J-2.079
G1X2.702Y-1.962
G0Z0.05
X1.352Y-2.055
Z-0.109
G1Z-0.149F950.
X1.41Y-1.955F400.
G3X1.285Y-1.922I1.285J-2.172
G1X0.79Y-1.921
G2X0.67Y-1.802I0.79J-1.802
G1X0.67Y-0.811
G2X0.79Y-0.692I0.79J-0.812
G1X1.78Y-0.691
G2X1.9Y-0.812I1.78J-0.812
G1X1.9Y-1.801
G2X1.78Y-1.922I1.78J-1.802
G1X1.285Y-1.921
X1.275
G3X1.15Y-1.955I1.275J-2.172
G1X1.207Y-2.055
G0Z0.05
X0.184Y-2.637
Z0.025
G1Z-0.015F950.
X0.284Y-2.695F400.
G3X0.317Y-2.57I0.067J-2.57
G2X0.767Y-2.57I0.542J-2.57
X0.317Y-2.57I0.542J-2.57
X0.317Y-2.56I0.542J-2.57
G3X0.289Y-2.433I0.068J-2.549
G1X0.187Y-2.486
G0Z0.05
X0.526Y-0.101
Z0.025
G1Z-0.015F950.
X0.427Y-0.043F400.
G3X0.393Y-0.168I0.643J-0.168
G2X-0.057Y-0.168I0.168J-0.168
X0.393Y-0.168I0.168J-0.168
X0.393Y-0.178I0.168J-0.168
G3X0.421Y-0.304I0.643J-0.189
G1X0.523Y-0.251
G0Z0.05
X0.51Y0.248
Z-0.113
G1Z-0.153F950.
X0.452Y0.148F400.
G3X0.577Y0.115I0.577J0.365
G1X0.952
X0.982Z-0.183
X3.055
X3.085Z-0.153
X3.835
X3.865Z-0.183
X3.985
G2X4.07Y0.08I3.985J-0.005
G1X4.117Y0.033
G2X4.152Y-0.052I4.032J-0.052
G1Y-2.686
G2X4.117Y-2.771I4.032J-2.686
G1X4.07Y-2.818
G2X3.985Y-2.853I3.985J-2.733
G1X3.865
X3.835Z-0.153
X3.085
X3.055Z-0.183
X0.982
X0.952Z-0.153
X0.202
X0.172Z-0.183
X0.052
G2X-0.033Y-2.818I0.052J-2.733
G1X-0.08Y-2.771
G2X-0.115Y-2.686I0.005J-2.686
G1Y-0.052
G2X-0.08Y0.033I0.005J-0.052
G1X-0.033Y0.08
G2X0.052Y0.115I0.052J-0.005
G1X0.172
X0.202Z-0.153
X0.577
X0.587
G3X0.712Y0.148I0.587J0.365
G1X0.655Y0.248
G0Z0.2
(M09)
(M5)
(M140 MB MAX)
(PLANE RESET STAY)
(M01)
(;)
(* - 90 deg 3/8" chamfer | SPOT 4X Ø.128 ±.005 HOLES)
(;TOOLPLANE NAME - OPERATION-1)
(TOOL CALL 24 Z S3667)
(;)
(;MAX - Z+.2)
(;MIN - Z-.06925)
(PLANE RESET STAY)
(L A+Q120 B+Q121 C+Q122 F MAX)
(;)
X0.168Y-0.168

(M08)
Z0.05
(CYCL DEF 200 DRILLING ~)
(       Q200=+.05 ; SET-UP CLEARANCE ~)
(       Q201=-.06925 ; DEPTH ~)
(       Q206=293 ; FEED RATE FOR PLUNGING ~)
(       Q202=+.06925 ; PLUNGING DEPTH ~)
(       Q210=+0 ; DWELL TIME AT TOP ~)
(       Q203=+0 ; SURFACE COORDINATE ~)
(       Q204=+.05 ; 2ND SET-UP CLEARANCE ~)
(       Q211=+0 ; DWELL TIME AT BOTTOM)

X0.542Y-2.57

X3.495

X3.869Y-0.168

Z0.2
(M09)
(M5)
(M140 MB MAX)
(PLANE RESET STAY)
(M01)
(;)
(* - #30 Drill | DRILL 4X Ø.128 ±.005 HOLES)
(;TOOLPLANE NAME - OPERATION-1)
(TOOL CALL 7 Z S10976)
(;)
(;MAX - Z+.2)
(;MIN - Z-.30796)
(PLANE RESET STAY)
(L A+Q120 B+Q121 C+Q122 F MAX)
(;)
(M08)


Z0.05
(CYCL DEF 205 UNIVERSAL PECKING ~)
(       Q200=+.05 ; SET-UP CLEARANCE ~)
(       Q201=-.30796 ; DEPTH ~)
(       Q206=335 ; FEED RATE FOR PLUNGING ~)
(       Q202=+.1028 ; PLUNGING DEPTH ~)
(       Q203=+0 ; SURFACE COORDINATE ~)
(       Q204=+.05 ; 2ND SET-UP CLEARANCE ~)
(       Q212=+.08995 ; DECREMENT ~)
(       Q205=+.01285 ; MIN. PLUNGING DEPTH ~)
(       Q258=+.09638 ; UPPER ADV STOP DIST ~)
(       Q259=+0 ; LOWER ADV STOP DIST ~)
(       Q257=+0 ; DEPTH FOR CHIP BRKNG ~)
(       Q256=+0 ; DIST FOR CHIP BRKNG ~)
(       Q211=+0 ; DWELL TIME AT BOTTOM ~)
(       Q379=+0 ; STARTING POINT ~)
(       Q253=0. ; FEED PRE-POSITIONING)

X3.495Y-2.57

X0.542

X0.168Y-0.168

Z0.2
(M09)
(M5)
(M140 MB MAX)
(PLANE RESET STAY)
(M01)
(;)
(* - 90 deg 3/8" chamfer | SPOT 2X Ø.2505" LOCATING PIN HOLES)
(;TOOLPLANE NAME - OPERATION-1)
(TOOL CALL 24 Z S2933)
(;)
(;MAX - Z+.2)
(;MIN - Z-.31862)
(PLANE RESET STAY)
(L A+Q120 B+Q121 C+Q122 F MAX)
(;)
X0.625Y0.495

(M08)
Z-0.118
(CYCL DEF 200 DRILLING ~)
(       Q200=+.05 ; SET-UP CLEARANCE ~)
(       Q201=-.135 ; DEPTH ~)
(       Q206=235 ; FEED RATE FOR PLUNGING ~)
(       Q202=+.135 ; PLUNGING DEPTH ~)
(       Q210=+0 ; DWELL TIME AT TOP ~)
(       Q203=-.168 ; SURFACE COORDINATE ~)
(       Q204=+.05 ; 2ND SET-UP CLEARANCE ~)
(       Q211=+0 ; DWELL TIME AT BOTTOM)

X3.412

Z0.2
(;)
(* - 90 deg 3/8" chamfer | SPOT 4X Ø9/32" BOLT HOLES)
X3.912
(CYCL DEF 200 DRILLING ~)
(       Q200=+.05 ; SET-UP CLEARANCE ~)
(       Q201=-.15063 ; DEPTH ~)
(       Q206=235 ; FEED RATE FOR PLUNGING ~)
(       Q202=+.15062 ; PLUNGING DEPTH ~)
(       Q210=+0 ; DWELL TIME AT TOP ~)
(       Q203=-.168 ; SURFACE COORDINATE ~)
(       Q204=+.368 ; 2ND SET-UP CLEARANCE ~)
(       Q211=+0 ; DWELL TIME AT BOTTOM)

Y-3.233

X0.125

Y0.495

(M09)
(M5)
(M140 MB MAX)
(PLANE RESET STAY)
(M01)
(;)
(* - Let. B Drill | PRE-DRILL 2X Ø.2505" LOCATING PIN HOLES)
(;TOOLPLANE NAME - OPERATION-1)
(TOOL CALL 56 Z S5644)
(;)
(;MAX - Z+.2)
(;MIN - Z-.87634)
(PLANE RESET STAY)
(L A+Q120 B+Q121 C+Q122 F MAX)
(;)
(M08)
X0.625

Z-0.118
(CYCL DEF 205 UNIVERSAL PECKING ~)
(       Q200=+.05 ; SET-UP CLEARANCE ~)
(       Q201=-.70834 ; DEPTH ~)
(       Q206=317 ; FEED RATE FOR PLUNGING ~)
(       Q202=+.1904 ; PLUNGING DEPTH ~)
(       Q203=-.168 ; SURFACE COORDINATE ~)
(       Q204=+.05 ; 2ND SET-UP CLEARANCE ~)
(       Q212=+.1666 ; DECREMENT ~)
(       Q205=+.0238 ; MIN. PLUNGING DEPTH ~)
(       Q258=+.1785 ; UPPER ADV STOP DIST ~)
(       Q259=+0 ; LOWER ADV STOP DIST ~)
(       Q257=+0 ; DEPTH FOR CHIP BRKNG ~)
(       Q256=+0 ; DIST FOR CHIP BRKNG ~)
(       Q211=+0 ; DWELL TIME AT BOTTOM ~)
(       Q379=+0 ; STARTING POINT ~)
(       Q253=0. ; FEED PRE-POSITIONING)

X3.412

Z0.2
(M09)
(M5)
(M140 MB MAX)
(PLANE RESET STAY)
(M01)
(;)
(* - .2505" Reamer | REAM 2X Ø.2505" LOCATING PIN HOLES)
(;TOOLPLANE NAME - OPERATION-1)
(TOOL CALL 55 Z S1995)
(;)
(;MAX - Z+.2)
(;MIN - Z-.793)
(PLANE RESET STAY)
(L A+Q120 B+Q121 C+Q122 F MAX)
(;)
(M08)


Z-0.118
(CYCL DEF 201 REAMING ~)
(       Q200=+.05 ; SET-UP CLEARANCE ~)
(       Q201=-.625 ; DEPTH ~)
(       Q206=180 ; FEED RATE FOR PLUNGING ~)
(       Q211=+0 ; DWELL TIME AT BOTTOM ~)
(       Q208=0 ; RETRACTION FEED TIME ~)
(       Q203=-.168 ; SURFACE COORDINATE ~)
(       Q204=+.05 ; 2ND SET-UP CLEARANCE)

X0.625

Z0.2
(M09)
(M5)
(M140 MB MAX)
(PLANE RESET STAY)
(M01)
(;)
(* - 9/32" Drill | DRILL 4X Ø9/32" BOLT HOLES)
(;TOOLPLANE NAME - OPERATION-1)
(TOOL CALL 26 Z S5014)
(;)
(;MAX - Z+.2)
(;MIN - Z-.88642)
(PLANE RESET STAY)
(L A+Q120 B+Q121 C+Q122 F MAX)
(;)
(M08)
X0.125

(CYCL DEF 205 UNIVERSAL PECKING ~)
(       Q200=+.05 ; SET-UP CLEARANCE ~)
(       Q201=-.71842 ; DEPTH ~)
(       Q206=326 ; FEED RATE FOR PLUNGING ~)
(       Q202=+.225 ; PLUNGING DEPTH ~)
(       Q203=-.168 ; SURFACE COORDINATE ~)
(       Q204=+.368 ; 2ND SET-UP CLEARANCE ~)
(       Q212=+.19687 ; DECREMENT ~)
(       Q205=+.02813 ; MIN. PLUNGING DEPTH ~)
(       Q258=+.21094 ; UPPER ADV STOP DIST ~)
(       Q259=+0 ; LOWER ADV STOP DIST ~)
(       Q257=+0 ; DEPTH FOR CHIP BRKNG ~)
(       Q256=+0 ; DIST FOR CHIP BRKNG ~)
(       Q211=+0 ; DWELL TIME AT BOTTOM ~)
(       Q379=+0 ; STARTING POINT ~)
(       Q253=0. ; FEED PRE-POSITIONING)

Y-3.233

X3.912

Y0.495

(M09)
(M5)
(M140 MB MAX)
(PLANE RESET STAY)
(L A+Q120 B+Q121 C+Q122 F MAX)
(CYCL DEF 7.0 DATUM SHIFT)
(CYCL DEF 7.1 X+0)
(CYCL DEF 7.2 Y+0)
(CYCL DEF 7.3 Z+0)
(END PGM 827-9999-904 INCH)
