( BEGIN PGM 827-9999-904 INCH)
(;MASTERCAM - X)
(;MCX FILE  - C:\B. PRIES GEOMETRY\MIKRON\MONEER\827-9999-904.MCX-9)
(;MATERIAL  - ALUMINUM INCH - 2024)
(;PROGRAM   - 827-9999-904.H)
(;DATE      - MAR-22-2016)
(;TIME      - 11:31 AM)
(;POST DEV - IN-HOUSE SOLUTIONS INC.)
(;)
(BLK FORM 0.1 Z X-.1 Y-.72 Z-.35715)
(BLK FORM 0.2 X+4.137 Y+3.458 Z+.64285)
(;TOOL - 11  | 9/16FEM 2 FLT.                 |         | CONTOUR....)
(;TOOL - 21  | 3" FACE MILL                   |         | FACING.....)
G0Z0.2
X5.787Y-0.53
Z0.145
G1Z0.12F2150.
X-1.75F2200.
G0Z0.2
X5.787Y-3.458
Z0.145
(;)
(* - 3" Face Mill | FINISH DATUM -A-)
X5.787Y-2.208
Z0.075(M09)
(M5)
(M140 MB MAX)
(PLANE RESET STAY)
(L A+Q120 B+Q121 C+Q122 F MAX)
(CYCL DEF 7.0 DATUM SHIFT)
(CYCL DEF 7.1 X+0)
(CYCL DEF 7.2 Y+0)
(CYCL DEF 7.3 Z+0)
(END PGM 827-9999-904 INCH)
